icons/evolvere-blue-folders-flat-vivid-dark-fallback/apps/64/sublime-text.svg

<?xml version="1.0" encoding="UTF-8" standalone="no"?>
<!-- Created with Inkscape (http://www.inkscape.org/) -->

<svg
   xmlns:dc="http://purl.org/dc/elements/1.1/"
   xmlns:cc="http://creativecommons.org/ns#"
   xmlns:rdf="http://www.w3.org/1999/02/22-rdf-syntax-ns#"
   xmlns:svg="http://www.w3.org/2000/svg"
   xmlns="http://www.w3.org/2000/svg"
   xmlns:sodipodi="http://sodipodi.sourceforge.net/DTD/sodipodi-0.dtd"
   xmlns:inkscape="http://www.inkscape.org/namespaces/inkscape"
   width="64"
   height="64"
   id="svg13094"
   version="1.1"
   inkscape:version="0.48.4 r9939"
   sodipodi:docname="sublime-text.svg">
  <sodipodi:namedview
     id="base"
     pagecolor="#ffffff"
     bordercolor="#666666"
     borderopacity="1.0"
     inkscape:pageopacity="0"
     inkscape:pageshadow="2"
     inkscape:zoom="11.313709"
     inkscape:cx="21.229792"
     inkscape:cy="31.200548"
     inkscape:document-units="px"
     inkscape:current-layer="svg13094"
     showgrid="true"
     inkscape:snap-bbox="true"
     inkscape:bbox-paths="true"
     inkscape:bbox-nodes="true"
     inkscape:snap-bbox-edge-midpoints="true"
     inkscape:snap-bbox-midpoints="true"
     inkscape:object-paths="true"
     inkscape:snap-intersection-paths="true"
     inkscape:object-nodes="true"
     inkscape:snap-smooth-nodes="true"
     inkscape:snap-midpoints="true"
     inkscape:snap-object-midpoints="true"
     inkscape:snap-center="true"
     showguides="true"
     inkscape:guide-bbox="true"
     inkscape:window-width="1920"
     inkscape:window-height="1025"
     inkscape:window-x="-2"
     inkscape:window-y="32"
     inkscape:window-maximized="1"
     inkscape:snap-global="true"
     fit-margin-top="0"
     fit-margin-left="0"
     fit-margin-right="0"
     fit-margin-bottom="0"
     showborder="true"
     inkscape:showpageshadow="false"
     inkscape:snap-page="true">
    <inkscape:grid
       type="xygrid"
       id="grid3075"
       empspacing="5"
       visible="true"
       enabled="true"
       snapvisiblegridlinesonly="true"
       originx="1.6362304e-08px"
       originy="18px" />
  </sodipodi:namedview>
  <defs
     id="defs13096" />
  <metadata
     id="metadata13099">
    <rdf:RDF>
      <cc:Work
         rdf:about="">
        <dc:format>image/svg+xml</dc:format>
        <dc:type
           rdf:resource="http://purl.org/dc/dcmitype/StillImage" />
        <dc:title />
      </cc:Work>
    </rdf:RDF>
  </metadata>
  <path
     inkscape:connector-curvature="0"
     style="color:#000000;fill:#625555;fill-opacity:1;fill-rule:nonzero;stroke:none;stroke-width:2.28571415000000000;marker:none;visibility:visible;display:inline;overflow:visible;enable-background:accumulate"
     d="m 0,4 0,30 0,28 2,2 30,0 30,0 2,-2 L 64,34 64,4 32,4 0,4 z"
     id="path4095" />
  <path
     inkscape:connector-curvature="0"
     style="color:#000000;fill:#9b7676;fill-opacity:1;fill-rule:nonzero;stroke:none;stroke-width:2.28571415000000000;marker:none;visibility:visible;display:inline;overflow:visible;enable-background:accumulate;opacity:1;stroke-linecap:butt;stroke-linejoin:miter;stroke-miterlimit:4;stroke-dasharray:none;stroke-dashoffset:0;stroke-opacity:1"
     d="M 2,0 0,1 0,4 32,4 64,4 64,1 62,0 32,0 2,0 z"
     id="path4090" />
  <path
     style="fill:#a07d7d;fill-opacity:1;fill-rule:nonzero"
     d="M 0,3 0,6 2,4 Z"
     id="path4298"
     inkscape:connector-curvature="0"
     sodipodi:nodetypes="cccc" />
  <path
     d="M 64,6 62,4 64,3 z"
     id="path3028"
     style="fill:#7c6464;fill-opacity:1"
     inkscape:connector-curvature="0" />
  <g
     id="g3043"
     inkscape:export-filename="folder.png"
     inkscape:export-xdpi="90"
     inkscape:export-ydpi="90"
     transform="translate(-0.62500009,0.082283)" />
  <g
     id="scalable"
     transform="matrix(1.0385892,0,0,1.0385892,1214.7222,1878.8121)"
     inkscape:label="#g3701"
     style="fill:#ffffff" />
  <path
     inkscape:connector-curvature="0"
     id="path3771"
     d="m 33,14.3125 c -2.431869,-0.202521 -4.713002,0.130438 -6.71875,0.9375 -4.011497,1.614124 -6.96875,5.246137 -6.96875,9.53125 0,3.388131 1.5256,6.568331 3.8125,8.5625 2.2869,1.994169 5.021046,3.062281 7.9375,3.84375 2.39614,0.64205 4.47209,1.462179 5.5,2.28125 1.02791,0.819071 1.315667,1.149376 1.1875,2.90625 -0.06099,0.836039 -0.939089,2.232505 -3.28125,2.875 -2.342161,0.642495 -5.889369,0.403981 -10,-2.46875 a 4.1179212,4.1179212 0 1 0 -4.71875,6.75 c 5.801777,4.054595 11.9313,5.012392 16.875,3.65625 4.9437,-1.356142 8.976141,-5.179673 9.34375,-10.21875 0.300433,-4.11824 -1.645959,-7.837617 -4.28125,-9.9375 -2.635291,-2.099883 -5.65501,-3.058553 -8.46875,-3.8125 -2.293425,-0.614527 -3.920212,-1.393428 -4.6875,-2.0625 -0.767288,-0.669072 -1,-1.008879 -1,-2.375 0,-0.469139 0.343773,-1.315272 1.8125,-1.90625 1.468727,-0.590978 4.002057,-0.765339 7.5,1.03125 A 4.1162906,4.1162906 0 1 0 40.625,16.59375 C 38.02527,15.258495 35.431869,14.515021 33,14.3125 z"
     style="font-size:medium;font-style:normal;font-variant:normal;font-weight:normal;font-stretch:normal;text-indent:0;text-align:start;text-decoration:none;line-height:normal;letter-spacing:normal;word-spacing:normal;text-transform:none;direction:ltr;block-progression:tb;writing-mode:lr-tb;text-anchor:start;baseline-shift:baseline;color:#000000;fill:#ffa729;fill-opacity:1;stroke:none;stroke-width:8.23175812000000029;marker:none;visibility:visible;display:inline;overflow:visible;enable-background:accumulate;font-family:Sans;-inkscape-font-specification:Sans" />
</svg>

<svg xmlns="http://www.w3.org/2000/svg" viewBox="0 0 64 64"><g color="#000"><path d="m0 4v30 28l2 2h30 30l2-2v-28-30h-32-32" fill="#625555"/><path d="m2 0l-2 1v3h32 32v-3l-2-1h-30-30" fill="#9b7676"/></g><path d="m0 3v3l2-2" fill="#a07d7d"/><path d="m64 6l-2-2 2-1z" fill="#7c6464"/><path d="m33 14.313c-2.432-.203-4.713.13-6.719.938-4.01 1.614-6.969 5.246-6.969 9.531 0 3.388 1.526 6.568 3.813 8.563 2.287 1.994 5.02 3.062 7.938 3.844 2.396.642 4.472 1.462 5.5 2.281 1.028.819 1.316 1.149 1.188 2.906-.061.836-.939 2.233-3.281 2.875-2.342.642-5.889.404-10-2.469a4.117921 4.117921 0 1 0 -4.71875 6.75c5.802 4.055 11.931 5.01 16.875 3.656 4.944-1.356 8.976-5.18 9.344-10.219.3-4.118-1.646-7.838-4.281-9.938-2.635-2.1-5.655-3.059-8.469-3.813-2.293-.615-3.92-1.393-4.688-2.063-.767-.669-1-1.01-1-2.375 0-.469.344-1.315 1.813-1.906 1.469-.591 4-.765 7.5 1.031a4.116291 4.116291 0 1 0 3.78125 -7.3125c-2.6-1.335-5.193-2.079-7.625-2.281" color="#000" fill="#ffa729"/></svg>
